src/lib/packages/icons/src/assets/line/martini-glass.svg

<svg width="24" height="24" viewBox="0 0 24 24" fill="none" xmlns="http://www.w3.org/2000/svg">
<path d="M16.0001 1.25C13.6401 1.25 11.6901 2.99 11.3301 5.25H4.00011C3.72011 5.25 3.46012 5.41 3.33012 5.66C3.20012 5.91 3.23013 6.22 3.40013 6.45L9.25011 14.25V18.78C9.01011 19.12 8.3001 19.93 6.5601 20.75C6.1101 20.96 5.8801 21.44 5.9901 21.93C6.1001 22.41 6.52012 22.75 7.01012 22.75H13.0001C13.4901 22.75 13.9201 22.41 14.0201 21.93C14.1301 21.45 13.8901 20.96 13.4501 20.75C11.7101 19.93 11.0001 19.12 10.7601 18.78V14.25L13.8001 10.2C14.4801 10.56 15.2301 10.75 16.0101 10.75C18.6301 10.75 20.7601 8.62 20.7601 6C20.7601 3.38 18.6301 1.25 16.0101 1.25H16.0001ZM14.5001 6.75L10.0001 12.75L5.50011 6.75H14.5001ZM11.2701 21.25H8.73009C9.29009 20.88 9.70011 20.52 10.0001 20.21C10.3001 20.52 10.7101 20.88 11.2701 21.25ZM16.0001 9.25C15.5501 9.25 15.1101 9.15 14.7101 8.97L16.6001 6.45C16.7701 6.22 16.8001 5.92 16.6701 5.66C16.5401 5.4 16.2801 5.25 16.0001 5.25H12.8501C13.1901 3.82 14.4701 2.75 16.0001 2.75C17.7901 2.75 19.2501 4.21 19.2501 6C19.2501 7.79 17.7901 9.25 16.0001 9.25Z" fill="currentColor"/>
</svg>

<svg xmlns="http://www.w3.org/2000/svg" width="24" height="24" fill="none"><path fill="currentColor" d="M16 1.25c-2.36 0-4.31 1.74-4.67 4H4a.76.76 0 0 0-.67.41c-.13.25-.1.56.07.79l5.85 7.8v4.53c-.24.34-.95 1.15-2.69 1.97-.45.21-.68.69-.57 1.18.11.48.53.82 1.02.82H13c.49 0 .92-.34 1.02-.82.11-.48-.13-.97-.57-1.18-1.74-.82-2.45-1.63-2.69-1.97v-4.53l3.04-4.05c.68.36 1.43.55 2.21.55 2.62 0 4.75-2.13 4.75-4.75s-2.13-4.75-4.75-4.75H16Zm-1.5 5.5-4.5 6-4.5-6h9Zm-3.23 14.5H8.73c.56-.37.97-.73 1.27-1.04.3.31.71.67 1.27 1.04Zm4.73-12c-.45 0-.89-.1-1.29-.28l1.89-2.52c.17-.23.2-.53.07-.79a.742.742 0 0 0-.67-.41h-3.15c.34-1.43 1.62-2.5 3.15-2.5 1.79 0 3.25 1.46 3.25 3.25S17.79 9.25 16 9.25Z"/></svg>
